; generated by PrusaSlicer 2.2.0+ on 2021-11-07 at 17:55:26 UTC


;
;

;
;
; 

; external perimeters extrusion width = 0.45mm
; perimeters extrusion width = 0.45mm
; infill extrusion width = 0.45mm
; solid infill extrusion width = 0.45mm
; top infill extrusion width = 0.40mm
; first layer extrusion width = 0.42mm

M73 P0 R86
M201 X1250 Y1250 Z400 E5000 ; sets maximum accelerations, mm/sec^2
M203 X180 Y180 Z12 E80 ; sets maximum feedrates, mm/sec
M204 P1250 R1250 T1250 ; sets acceleration (P, T) and retract acceleration (R), mm/sec^2
M205 X8.00 Y8.00 Z2.00 E10.00 ; sets the jerk limits, mm/sec
M205 S0 T0 ; sets the minimum extruding and travel feed rate, mm/sec
M107
G90 ; use absolute coordinates
M83 ; extruder relative mode
M104 S170 ; set extruder temp for bed leveling
M140 S85 ; set bed temp
M109 R170 ; wait for bed leveling temp
M190 S85 ; wait for bed temp
G28 ; home all without mesh bed level
G29 ; mesh bed leveling 
M104 S240 ; set extruder temp
G92 E0.0
G1 Y-2.0 X179 F2400
G1 Z3 F720
M109 S240 ; wait for extruder temp

; intro line
G1 X170 F1000
G1 Z0.2 F720
G1 X110.0 E8.0 F900
M73 P0 R86
G1 X40.0 E10.0 F700
G92 E0.0

M221 S95 ; set flow
G21 ; set units to millimeters
G90 ; use absolute coordinates
M83 ; use relative distances for extrusion
M900 K0.2 ; Filament gcode
;BEFORE_LAYER_CHANGE
G92 E0.0
;0.2


G1 Z0.200 F9000.000
;AFTER_LAYER_CHANGE
;0.2
G1 E-3.20000 F2400.00000
G1 Z0.400 F9000.000
G1 X14.983 Y54.048
G1 Z0.200
G1 E3.20000 F1500.00000
M204 S800
G1 F1200.000
G1 X16.233 Y53.254 E0.04643
G1 X17.581 Y52.783 E0.04477
G1 X18.988 Y52.623 E0.04442
G1 X161.004 Y52.623 E4.45279
G1 X162.385 Y52.775 E0.04358
G1 X163.571 Y53.171 E0.03918
G1 X164.768 Y53.866 E0.04342
G1 X165.164 Y54.181 E0.01585
G1 X166.014 Y55.060 E0.03834
G1 X166.757 Y56.257 E0.04418
G1 X167.215 Y57.570 E0.04359
G1 X167.375 Y58.912 E0.04240
G1 X167.374 Y121.126 E1.95065
G1 X167.150 Y122.657 E0.04853
G1 X166.746 Y123.767 E0.03703
G1 X166.128 Y124.778 E0.03715
G1 X165.015 Y125.954 E0.05079
G1 X163.767 Y126.746 E0.04632
G1 X162.419 Y127.217 E0.04477
G1 X161.012 Y127.377 E0.04442
G1 X18.954 Y127.377 E4.45410
G1 X17.357 Y127.155 E0.05055
G1 X16.237 Y126.747 E0.03739
G1 X15.235 Y126.136 E0.03679
G1 X14.048 Y125.017 E0.05114
G1 X13.254 Y123.767 E0.04643
G1 X12.784 Y122.423 E0.04465
G1 X12.623 Y121.023 E0.04418
G1 X12.625 Y58.901 E1.94779
G1 X12.849 Y57.347 E0.04924
G1 X13.254 Y56.233 E0.03715
G1 X13.870 Y55.225 E0.03703
G1 X14.941 Y54.092 E0.04891
M204 S1250
; printing object lid.stl id:0 copy 0
G1 E-2.24000 F2400.00000
G1 F7200.000
G1 X16.233 Y53.254 E-0.48741
G1 X17.499 Y52.812 E-0.42459
G1 E-0.04800 F2400.00000
G1 Z0.400 F9000.000
G1 X137.517 Y89.406
G1 Z0.200
G1 E3.20000 F1500.00000
M204 S800
G1 F1200.000
G1 X137.746 Y88.853 E0.01878
G1 X138.111 Y88.378 E0.01878
G1 X138.586 Y88.013 E0.01878
G1 X139.139 Y87.784 E0.01878
G1 X139.673 Y87.714 E0.01688
G1 X140.319 Y87.781 E0.02037
G1 X140.880 Y88.013 E0.01903
G1 X141.355 Y88.378 E0.01878
G1 X141.719 Y88.853 E0.01878
G1 X141.948 Y89.406 E0.01878
G1 X142.027 Y90.000 E0.01878
G1 X141.948 Y90.594 E0.01878
G1 X141.719 Y91.147 E0.01878
G1 X141.355 Y91.622 E0.01878
G1 X140.880 Y91.987 E0.01878
G1 X140.326 Y92.216 E0.01878
G1 X139.733 Y92.294 E0.01878
G1 X139.139 Y92.216 E0.01878
G1 X138.586 Y91.987 E0.01878
G1 X138.111 Y91.622 E0.01878
G1 X137.746 Y91.147 E0.01878
G1 X137.517 Y90.594 E0.01878
G1 X137.439 Y90.000 E0.01878
G1 X137.509 Y89.466 E0.01689
M204 S1250
G1 X137.883 Y89.515 F9000.000
M204 S800
G1 F1200.000
G1 X138.076 Y89.043 E0.01598
G1 X138.380 Y88.647 E0.01566
G1 X138.776 Y88.343 E0.01566
G1 X139.237 Y88.152 E0.01566
G1 X139.678 Y88.094 E0.01393
G1 X140.225 Y88.151 E0.01726
G1 X140.689 Y88.343 E0.01575
G1 X141.086 Y88.647 E0.01566
G1 X141.390 Y89.043 E0.01566
G1 X141.581 Y89.505 E0.01566
G1 X141.646 Y90.000 E0.01566
G1 X141.581 Y90.495 E0.01566
G1 X141.390 Y90.957 E0.01566
G1 X141.086 Y91.353 E0.01566
G1 X140.689 Y91.657 E0.01566
G1 X140.228 Y91.848 E0.01566
G1 X139.733 Y91.914 E0.01566
G1 X139.237 Y91.848 E0.01566
G1 X138.776 Y91.657 E0.01566
G1 X138.380 Y91.353 E0.01566
G1 X138.076 Y90.957 E0.01566
G1 X137.884 Y90.495 E0.01566
G1 X137.819 Y90.000 E0.01566
G1 X137.875 Y89.574 E0.01346
M204 S1250
G1 X137.599 Y89.233 F9000.000
G1 E-2.24000 F2400.00000
G1 F7200.000
G1 X138.076 Y89.043 E-0.17980
G1 X138.380 Y88.647 E-0.15819
G1 X138.776 Y88.343 E-0.15819
G1 X139.237 Y88.152 E-0.15818
G1 X139.678 Y88.094 E-0.14065
G1 X140.045 Y88.132 E-0.11699
G1 E-0.04800 F2400.00000
G1 Z0.400 F9000.000
G1 X42.562 Y89.992
G1 Z0.200
G1 E3.20000 F1500.00000
M204 S800
G1 F1200.000
G1 X42.483 Y90.594 E0.01903
G1 X42.254 Y91.147 E0.01878
G1 X41.889 Y91.622 E0.01878
G1 X41.414 Y91.987 E0.01878
G1 X40.861 Y92.216 E0.01878
G1 X40.267 Y92.294 E0.01878
G1 X39.674 Y92.216 E0.01878
G1 X39.120 Y91.987 E0.01878
G1 X38.645 Y91.622 E0.01878
G1 X38.281 Y91.147 E0.01878
G1 X38.052 Y90.594 E0.01878
G1 X37.973 Y90.000 E0.01878
G1 X38.052 Y89.406 E0.01878
G1 X38.281 Y88.853 E0.01878
G1 X38.645 Y88.378 E0.01878
G1 X39.120 Y88.013 E0.01878
G1 X39.674 Y87.784 E0.01878
G1 X40.207 Y87.714 E0.01688
G1 X40.853 Y87.781 E0.02037
G1 X41.414 Y88.013 E0.01903
G1 X41.889 Y88.378 E0.01878
G1 X42.254 Y88.853 E0.01878
G1 X42.460 Y89.350 E0.01688
G1 X42.553 Y89.933 E0.01849
M204 S1250
G1 X42.180 Y89.992 F9000.000
M204 S800
G1 F1200.000
G1 X42.116 Y90.495 E0.01591
G1 X41.924 Y90.957 E0.01566
G1 X41.620 Y91.353 E0.01566
G1 X41.224 Y91.657 E0.01566
G1 X40.763 Y91.848 E0.01566
G1 X40.267 Y91.914 E0.01566
G1 X39.772 Y91.848 E0.01566
G1 X39.311 Y91.657 E0.01566
G1 X38.914 Y91.353 E0.01566
G1 X38.610 Y90.957 E0.01566
G1 X38.419 Y90.495 E0.01566
G1 X38.354 Y90.000 E0.01566
G1 X38.419 Y89.505 E0.01566
G1 X38.610 Y89.043 E0.01566
G1 X38.914 Y88.647 E0.01566
G1 X39.311 Y88.343 E0.01566
G1 X39.772 Y88.152 E0.01566
G1 X40.212 Y88.094 E0.01393
G1 X40.760 Y88.151 E0.01726
G1 X41.224 Y88.343 E0.01575
G1 X41.620 Y88.647 E0.01566
G1 X41.924 Y89.043 E0.01566
G1 X42.094 Y89.454 E0.01393
G1 X42.171 Y89.933 E0.01522
M204 S1250
G1 X42.527 Y90.191 F9000.000
G1 E-2.24000 F2400.00000
G1 F7200.000
G1 X42.116 Y90.495 E-0.17897
G1 X41.924 Y90.957 E-0.15819
G1 X41.620 Y91.353 E-0.15819
G1 X41.224 Y91.657 E-0.15818
G1 X40.763 Y91.848 E-0.15819
G1 X40.449 Y91.890 E-0.10029
G1 E-0.04800 F2400.00000
G1 Z0.400 F9000.000
G1 X15.872 Y58.286
G1 Z0.200
G1 E3.20000 F1500.00000
M204 S800
G1 F1200.000
G1 X16.110 Y57.608 E0.02252
G1 X16.492 Y57.000 E0.02252
G1 X17.000 Y56.492 E0.02252
G1 X17.608 Y56.110 E0.02252
G1 X18.286 Y55.872 E0.02252
G1 X19.044 Y55.787 E0.02392
G1 X161.004 Y55.793 E4.45105
G1 X161.714 Y55.872 E0.02240
G1 X162.392 Y56.110 E0.02252
G1 X163.000 Y56.492 E0.02252
G1 X163.508 Y57.000 E0.02252
G1 X163.890 Y57.608 E0.02252
G1 X164.128 Y58.286 E0.02252
G1 X164.213 Y59.044 E0.02392
G1 X164.213 Y120.956 E1.94119
G1 X164.128 Y121.714 E0.02392
G1 X163.890 Y122.392 E0.02252
G1 X163.508 Y123.000 E0.02252
G1 X163.000 Y123.508 E0.02252
G1 X162.392 Y123.890 E0.02252
G1 X161.714 Y124.128 E0.02252
G1 X160.956 Y124.213 E0.02392
G1 X19.044 Y124.213 E4.44954
G1 X18.286 Y124.128 E0.02392
G1 X17.608 Y123.890 E0.02252
G1 X17.000 Y123.508 E0.02252
G1 X16.492 Y123.000 E0.02252
G1 X16.110 Y122.392 E0.02252
G1 X15.872 Y121.714 E0.02252
G1 X15.787 Y120.956 E0.02392
G1 X15.787 Y59.044 E1.94119
G1 X15.866 Y58.346 E0.02204
M204 S1250
G1 X15.503 Y58.202 F9000.000
M204 S800
G1 F1200.000
G1 X15.768 Y57.443 E0.02519
G1 X16.195 Y56.763 E0.02519
G1 X16.763 Y56.195 E0.02519
G1 X17.443 Y55.768 E0.02519
G1 X18.202 Y55.503 E0.02519
G1 X19.023 Y55.410 E0.02591
G1 X161.025 Y55.415 E4.45238
M73 P1 R85
G1 X161.798 Y55.503 E0.02439
G1 X162.557 Y55.768 E0.02519
G1 X163.237 Y56.195 E0.02519
G1 X163.805 Y56.763 E0.02519
G1 X164.232 Y57.443 E0.02519
G1 X164.497 Y58.202 E0.02519
G1 X164.590 Y59.023 E0.02591
G1 X164.590 Y120.977 E1.94252
G1 X164.497 Y121.798 E0.02591
G1 X164.232 Y122.557 E0.02519
G1 X163.805 Y123.237 E0.02519
G1 X163.237 Y123.805 E0.02519
G1 X162.557 Y124.232 E0.02519
G1 X161.798 Y124.497 E0.02519
G1 X160.977 Y124.590 E0.02591
G1 X19.023 Y124.590 E4.45087
G1 X18.202 Y124.497 E0.02591
G1 X17.443 Y124.232 E0.02519
G1 X16.763 Y123.805 E0.02519
G1 X16.195 Y123.237 E0.02519
G1 X15.768 Y122.557 E0.02519
G1 X15.503 Y121.798 E0.02519
G1 X15.410 Y120.977 E0.02591
G1 X15.410 Y59.023 E1.94252
G1 X15.496 Y58.261 E0.02403
M204 S1250
G1 X15.885 Y58.084 F9000.000
G1 E-2.24000 F2400.00000
G1 F7200.000
G1 X15.768 Y57.443 E-0.27294
G1 X16.195 Y56.763 E-0.25439
G1 X16.763 Y56.195 E-0.25439
G1 X17.112 Y55.976 E-0.13029
G1 E-0.04800 F2400.00000
G1 Z0.400 F9000.000
G1 X16.200 Y122.307
G1 Z0.200
G1 E3.20000 F1500.00000
M204 S800
G1 F1200.000
G1 X17.180 Y123.287 E0.04357
G1 X17.732 Y123.634 E0.02047
G1 X18.239 Y123.811 E0.01688
G1 X16.189 Y121.761 E0.09111
G1 X16.150 Y121.651 E0.00369
G1 X16.091 Y121.129 E0.01649
G1 X18.871 Y123.909 E0.12354
G1 X19.060 Y123.930 E0.00599
G1 X19.427 Y123.930 E0.01152
G1 X16.070 Y120.573 E0.14920
G1 X16.070 Y120.039 E0.01680
G1 X19.961 Y123.930 E0.17296
G1 X20.496 Y123.930 E0.01680
G1 X16.070 Y119.504 E0.19672
G1 X16.070 Y118.970 E0.01680
G1 X21.030 Y123.930 E0.22048
G1 X21.565 Y123.930 E0.01680
G1 X16.070 Y118.435 E0.24424
G1 X16.070 Y117.901 E0.01680
G1 X22.099 Y123.930 E0.26799
G1 X22.634 Y123.930 E0.01680
G1 X16.070 Y117.366 E0.29175
G1 X16.070 Y116.832 E0.01680
G1 X23.168 Y123.930 E0.31551
G1 X23.703 Y123.930 E0.01680
G1 X16.070 Y116.297 E0.33927
G1 X16.070 Y115.762 E0.01680
G1 X24.238 Y123.930 E0.36303
G1 X24.772 Y123.930 E0.01680
G1 X16.070 Y115.228 E0.38679
G1 X16.070 Y114.693 E0.01680
G1 X25.307 Y123.930 E0.41055
G1 X25.841 Y123.930 E0.01680
G1 X16.070 Y114.159 E0.43431
G1 X16.070 Y113.624 E0.01680
G1 X26.376 Y123.930 E0.45807
G1 X26.910 Y123.930 E0.01680
G1 X16.070 Y113.090 E0.48183
G1 X16.070 Y112.555 E0.01680
G1 X27.445 Y123.930 E0.50559
G1 X27.979 Y123.930 E0.01680
G1 X16.070 Y112.021 E0.52935
G1 X16.070 Y111.486 E0.01680
G1 X28.514 Y123.930 E0.55311
G1 X29.048 Y123.930 E0.01680
G1 X16.070 Y110.952 E0.57687
G1 X16.070 Y110.417 E0.01680
G1 X29.583 Y123.930 E0.60063
G1 X30.118 Y123.930 E0.01680
G1 X16.070 Y109.882 E0.62438
G1 X16.070 Y109.348 E0.01680
G1 X30.652 Y123.930 E0.64814
G1 X31.187 Y123.930 E0.01680
G1 X16.070 Y108.813 E0.67190
G1 X16.070 Y108.279 E0.01680
G1 X31.721 Y123.930 E0.69566
G1 X32.256 Y123.930 E0.01680
G1 X16.070 Y107.744 E0.71942
G1 X16.070 Y107.210 E0.01680
G1 X32.790 Y123.930 E0.74318
G1 X33.325 Y123.930 E0.01680
G1 X16.070 Y106.675 E0.76694
G1 X16.070 Y106.141 E0.01680
G1 X33.859 Y123.930 E0.79070
G1 X34.394 Y123.930 E0.01680
G1 X16.070 Y105.606 E0.81446
G1 X16.070 Y105.072 E0.01680
G1 X34.928 Y123.930 E0.83822
G1 X35.463 Y123.930 E0.01680
G1 X16.070 Y104.537 E0.86198
G1 X16.070 Y104.002 E0.01680
G1 X35.998 Y123.930 E0.88574
G1 X36.532 Y123.930 E0.01680
G1 X16.070 Y103.468 E0.90950
G1 X16.070 Y102.933 E0.01680
G1 X37.067 Y123.930 E0.93326
G1 X37.601 Y123.930 E0.01680
G1 X16.070 Y102.399 E0.95702
G1 X16.070 Y101.864 E0.01680
G1 X38.136 Y123.930 E0.98077
G1 X38.670 Y123.930 E0.01680
G1 X16.070 Y101.330 E1.00453
G1 X16.070 Y100.795 E0.01680
G1 X39.205 Y123.930 E1.02829
G1 X39.739 Y123.930 E0.01680
G1 X16.070 Y100.261 E1.05205
G1 X16.070 Y99.726 E0.01680
G1 X40.274 Y123.930 E1.07581
G1 X40.808 Y123.930 E0.01680
G1 X16.070 Y99.192 E1.09957
G1 X16.070 Y98.657 E0.01680
G1 X41.343 Y123.930 E1.12333
G1 X41.878 Y123.930 E0.01680
G1 X16.070 Y98.122 E1.14709
M73 P2 R84
G1 X16.070 Y97.588 E0.01680
G1 X42.412 Y123.930 E1.17085
G1 X42.947 Y123.930 E0.01680
G1 X16.070 Y97.053 E1.19461
G1 X16.070 Y96.519 E0.01680
G1 X43.481 Y123.930 E1.21837
G1 X44.016 Y123.930 E0.01680
G1 X16.070 Y95.984 E1.24213
G1 X16.070 Y95.450 E0.01680
G1 X44.550 Y123.930 E1.26589
G1 X45.085 Y123.930 E0.01680
G1 X16.070 Y94.915 E1.28965
G1 X16.070 Y94.381 E0.01680
G1 X45.619 Y123.930 E1.31340
G1 X46.154 Y123.930 E0.01680
G1 X16.070 Y93.846 E1.33716
G1 X16.070 Y93.312 E0.01680
G1 X46.688 Y123.930 E1.36092
G1 X47.223 Y123.930 E0.01680
G1 X16.070 Y92.777 E1.38468
G1 X16.070 Y92.242 E0.01680
G1 X47.758 Y123.930 E1.40844
G1 X48.292 Y123.930 E0.01680
G1 X16.070 Y91.708 E1.43220
G1 X16.070 Y91.173 E0.01680
G1 X48.827 Y123.930 E1.45596
G1 X49.361 Y123.930 E0.01680
G1 X16.070 Y90.639 E1.47972
G1 X16.070 Y90.104 E0.01680
G1 X49.896 Y123.930 E1.50348
G1 X50.430 Y123.930 E0.01680
G1 X16.070 Y89.570 E1.52724
G1 X16.070 Y89.035 E0.01680
G1 X50.965 Y123.930 E1.55100
G1 X51.499 Y123.930 E0.01680
G1 X16.070 Y88.501 E1.57476
G1 X16.070 Y87.966 E0.01680
G1 X52.034 Y123.930 E1.59852
G1 X52.568 Y123.930 E0.01680
G1 X16.070 Y87.432 E1.62228
G1 X16.070 Y86.897 E0.01680
G1 X53.103 Y123.930 E1.64604
G1 X53.638 Y123.930 E0.01680
G1 X16.070 Y86.362 E1.66979
G1 X16.070 Y85.828 E0.01680
G1 X54.172 Y123.930 E1.69355
G1 X54.707 Y123.930 E0.01680
G1 X16.070 Y85.293 E1.71731
G1 X16.070 Y84.759 E0.01680
G1 X55.241 Y123.930 E1.74107
G1 X55.776 Y123.930 E0.01680
G1 X16.070 Y84.224 E1.76483
M73 P3 R83
G1 X16.070 Y83.690 E0.01680
G1 X56.310 Y123.930 E1.78859
G1 X56.845 Y123.930 E0.01680
G1 X16.070 Y83.155 E1.81235
G1 X16.070 Y82.621 E0.01680
G1 X57.379 Y123.930 E1.83611
G1 X57.914 Y123.930 E0.01680
G1 X16.070 Y82.086 E1.85987
G1 X16.070 Y81.552 E0.01680
G1 X58.448 Y123.930 E1.88363
G1 X58.983 Y123.930 E0.01680
G1 X16.070 Y81.017 E1.90739
G1 X16.070 Y80.482 E0.01680
G1 X59.518 Y123.930 E1.93115
G1 X60.052 Y123.930 E0.01680
G1 X16.070 Y79.948 E1.95491
G1 X16.070 Y79.413 E0.01680
G1 X60.587 Y123.930 E1.97867
G1 X61.121 Y123.930 E0.01680
G1 X16.070 Y78.879 E2.00243
G1 X16.070 Y78.344 E0.01680
G1 X61.656 Y123.930 E2.02618
G1 X62.190 Y123.930 E0.01680
G1 X16.070 Y77.810 E2.04994
G1 X16.070 Y77.275 E0.01680
G1 X62.725 Y123.930 E2.07370
G1 X63.259 Y123.930 E0.01680
G1 X16.070 Y76.741 E2.09746
G1 X16.070 Y76.206 E0.01680
G1 X63.794 Y123.930 E2.12122
G1 X64.328 Y123.930 E0.01680
G1 X16.070 Y75.672 E2.14498
G1 X16.070 Y75.137 E0.01680
G1 X64.863 Y123.930 E2.16874
G1 X65.398 Y123.930 E0.01680
G1 X16.070 Y74.602 E2.19250
G1 X16.070 Y74.068 E0.01680
G1 X65.932 Y123.930 E2.21626
M73 P5 R82
G1 X66.467 Y123.930 E0.01680
G1 X16.070 Y73.533 E2.24002
G1 X16.070 Y72.999 E0.01680
G1 X67.001 Y123.930 E2.26378
G1 X67.536 Y123.930 E0.01680
G1 X16.070 Y72.464 E2.28754
G1 X16.070 Y71.930 E0.01680
G1 X68.070 Y123.930 E2.31130
G1 X68.605 Y123.930 E0.01680
G1 X16.070 Y71.395 E2.33506
G1 X16.070 Y70.861 E0.01680
G1 X69.139 Y123.930 E2.35882
G1 X69.674 Y123.930 E0.01680
G1 X16.070 Y70.326 E2.38257
G1 X16.070 Y69.792 E0.01680
G1 X70.378 Y124.100 E2.41388
M204 S1250
G1 E-2.24000 F2400.00000
G1 F7200.000
G1 X68.342 Y122.063 E-0.91200
G1 E-0.04800 F2400.00000
G1 Z0.400 F9000.000
G1 X77.327 Y124.100
G1 Z0.200
G1 E3.20000 F1500.00000
M204 S800
G1 F1200.000
G1 X42.778 Y89.551 E1.53563
G1 X42.848 Y89.988 E0.01391
G1 X42.829 Y90.136 E0.00468
G1 X76.623 Y123.930 E1.50209
G1 X76.088 Y123.930 E0.01680
G1 X42.766 Y90.608 E1.48109
G1 X42.759 Y90.668 E0.00189
G1 X42.622 Y90.998 E0.01124
G1 X75.554 Y123.930 E1.46376
G1 X75.019 Y123.930 E0.01680
G1 X42.448 Y91.359 E1.44773
G1 X42.216 Y91.661 E0.01198
G1 X74.485 Y123.930 E1.43428
G1 X73.950 Y123.930 E0.01680
G1 X41.951 Y91.931 E1.42229
G1 X41.649 Y92.163 E0.01198
G1 X73.416 Y123.930 E1.41197
G1 X72.881 Y123.930 E0.01680
G1 X41.294 Y92.343 E1.40399
G1 X40.911 Y92.494 E0.01294
G1 X72.347 Y123.930 E1.39725
G1 X71.812 Y123.930 E0.01680
G1 X40.439 Y92.557 E1.39448
G1 X40.267 Y92.579 E0.00543
G1 X39.875 Y92.527 E0.01244
G1 X71.278 Y123.930 E1.39578
G1 X70.743 Y123.930 E0.01680
G1 X16.070 Y69.257 E2.43009
M73 P6 R81
G1 X16.070 Y68.722 E0.01680
G1 X37.740 Y90.392 E0.96318
G1 X37.688 Y90.000 E0.01244
G1 X37.711 Y89.829 E0.00543
G1 X16.070 Y68.188 E0.96189
G1 X16.070 Y67.653 E0.01680
G1 X37.773 Y89.356 E0.96465
G1 X37.925 Y88.974 E0.01294
G1 X16.070 Y67.119 E0.97140
G1 X16.070 Y66.584 E0.01680
G1 X38.104 Y88.619 E0.97937
G1 X38.336 Y88.316 E0.01198
G1 X16.070 Y66.050 E0.98969
G1 X16.070 Y65.515 E0.01680
G1 X38.606 Y88.052 E1.00169
G1 X38.909 Y87.819 E0.01198
G1 X16.070 Y64.981 E1.01513
G1 X16.070 Y64.446 E0.01680
G1 X39.269 Y87.646 E1.03116
G1 X39.600 Y87.509 E0.01124
G1 X39.659 Y87.501 E0.00189
G1 X16.070 Y63.912 E1.04849
