; generated by PrusaSlicer 2.2.0+ on 2021-11-07 at 15:29:52 UTC


;
;

;
;
; 

; external perimeters extrusion width = 0.45mm
; perimeters extrusion width = 0.45mm
; infill extrusion width = 0.45mm
; solid infill extrusion width = 0.45mm
; top infill extrusion width = 0.40mm
; first layer extrusion width = 0.42mm

M73 P0 R109
M201 X1250 Y1250 Z400 E5000 ; sets maximum accelerations, mm/sec^2
M203 X180 Y180 Z12 E80 ; sets maximum feedrates, mm/sec
M204 P1250 R1250 T1250 ; sets acceleration (P, T) and retract acceleration (R), mm/sec^2
M205 X8.00 Y8.00 Z2.00 E10.00 ; sets the jerk limits, mm/sec
M205 S0 T0 ; sets the minimum extruding and travel feed rate, mm/sec
M107
G90 ; use absolute coordinates
M83 ; extruder relative mode
M104 S170 ; set extruder temp for bed leveling
M140 S85 ; set bed temp
M109 R170 ; wait for bed leveling temp
M190 S85 ; wait for bed temp
G28 ; home all without mesh bed level
G29 ; mesh bed leveling 
M104 S240 ; set extruder temp
G92 E0.0
G1 Y-2.0 X179 F2400
G1 Z3 F720
M109 S240 ; wait for extruder temp

; intro line
G1 X170 F1000
G1 Z0.2 F720
G1 X110.0 E8.0 F900
M73 P0 R109
G1 X40.0 E10.0 F700
G92 E0.0

M221 S95 ; set flow
G21 ; set units to millimeters
G90 ; use absolute coordinates
M83 ; use relative distances for extrusion
M900 K0.2 ; Filament gcode
;BEFORE_LAYER_CHANGE
G92 E0.0
;0.2


G1 Z0.200 F9000.000
;AFTER_LAYER_CHANGE
;0.2
G1 E-3.20000 F2400.00000
G1 Z0.400 F9000.000
G1 X16.835 Y53.002
G1 Z0.200
G1 E3.20000 F1500.00000
M204 S800
G1 F1200.000
G1 X18.057 Y52.697 E0.03948
G1 X147.336 Y39.727 E4.07380
G1 X148.120 Y39.763 E0.02461
G1 X149.387 Y39.992 E0.04036
G1 X151.030 Y40.588 E0.05482
G1 X152.377 Y41.319 E0.04803
G1 X153.173 Y41.849 E0.03000
G1 X155.379 Y43.692 E0.09013
G1 X165.929 Y54.955 E0.48385
G1 X166.528 Y55.820 E0.03299
G1 X166.989 Y56.810 E0.03426
G1 X167.276 Y57.868 E0.03438
G1 X167.373 Y58.871 E0.03159
G1 X167.377 Y121.004 E1.94812
G1 X167.276 Y122.132 E0.03551
G1 X167.001 Y123.158 E0.03330
G1 X166.610 Y124.022 E0.02973
G1 X165.831 Y125.161 E0.04327
G1 X156.098 Y135.593 E0.44734
G1 X153.949 Y137.563 E0.09142
G1 X152.442 Y138.641 E0.05810
G1 X150.961 Y139.445 E0.05284
G1 X149.489 Y139.982 E0.04913
G1 X148.029 Y140.247 E0.04654
G1 X146.682 Y140.233 E0.04222
G1 X18.060 Y127.304 E4.05318
G1 X16.821 Y126.993 E0.04006
G1 X15.677 Y126.439 E0.03984
G1 X14.905 Y125.889 E0.02973
G1 X14.247 Y125.244 E0.02889
G1 X13.525 Y124.268 E0.03804
G1 X12.952 Y123.009 E0.04339
G1 X12.716 Y122.087 E0.02985
G1 X12.624 Y121.037 E0.03303
G1 X12.624 Y58.928 E1.94741
G1 X12.717 Y57.909 E0.03206
G1 X12.948 Y57.006 E0.02925
G1 X13.475 Y55.816 E0.04078
G1 X14.242 Y54.761 E0.04090
G1 X14.911 Y54.106 E0.02937
G1 X15.732 Y53.525 E0.03152
G1 X16.781 Y53.027 E0.03642
M204 S1250
; printing object top.stl id:0 copy 0
G1 E-2.24000 F2400.00000
G1 F7200.000
G1 X18.057 Y52.697 E-0.41737
G1 X19.611 Y52.541 E-0.49463
G1 E-0.04800 F2400.00000
G1 Z0.400 F9000.000
G1 X26.713 Y58.513
G1 Z0.200
G1 E3.20000 F1500.00000
M204 S800
G1 F1200.000
G1 X134.487 Y58.513 E3.37918
G1 X134.487 Y121.487 E1.97451
G1 X26.713 Y121.487 E3.37918
G1 X26.713 Y58.573 E1.97263
M204 S1250
G1 X27.090 Y58.890 F9000.000
M204 S800
G1 F1200.000
G1 X134.110 Y58.890 E3.35554
G1 X134.110 Y121.110 E1.95086
G1 X27.090 Y121.110 E3.35554
M73 P1 R108
G1 X27.090 Y58.950 E1.94898
M204 S1250
G1 X26.954 Y58.514 F9000.000
G1 E-2.24000 F2400.00000
G1 F7200.000
G1 X29.970 Y58.948 E-0.91200
G1 E-0.04800 F2400.00000
G1 Z0.400 F9000.000
G1 X151.775 Y124.213
G1 Z0.200
G1 E3.20000 F1500.00000
M204 S800
G1 F1200.000
G1 X19.034 Y124.213 E4.16200
G1 X18.443 Y124.161 E0.01863
G1 X17.902 Y124.016 E0.01754
G1 X17.395 Y123.780 E0.01754
G1 X16.937 Y123.459 E0.01754
G1 X16.541 Y123.063 E0.01754
G1 X16.220 Y122.605 E0.01754
G1 X15.984 Y122.098 E0.01754
G1 X15.839 Y121.557 E0.01754
G1 X15.787 Y120.966 E0.01863
G1 X15.787 Y59.034 E1.94181
G1 X15.839 Y58.443 E0.01863
G1 X15.984 Y57.902 E0.01754
G1 X16.220 Y57.395 E0.01754
G1 X16.541 Y56.937 E0.01754
G1 X16.937 Y56.541 E0.01754
G1 X17.395 Y56.220 E0.01754
G1 X17.902 Y55.984 E0.01754
G1 X18.443 Y55.839 E0.01754
G1 X19.034 Y55.787 E0.01863
G1 X151.775 Y55.787 E4.16200
G1 X152.038 Y54.302 E0.04728
G1 X152.149 Y53.492 E0.02564
G1 X152.218 Y52.719 E0.02432
G1 X152.247 Y51.984 E0.02307
G1 X152.234 Y51.285 E0.02191
G1 X152.177 Y50.623 E0.02085
G1 X152.077 Y49.996 E0.01989
G1 X151.932 Y49.406 E0.01906
G1 X151.741 Y48.853 E0.01835
G1 X151.506 Y48.338 E0.01775
G1 X151.226 Y47.864 E0.01727
G1 X150.904 Y47.432 E0.01687
G1 X150.546 Y47.045 E0.01655
G1 X150.157 Y46.701 E0.01628
G1 X149.743 Y46.399 E0.01605
G1 X149.301 Y46.131 E0.01621
G1 X148.425 Y45.714 E0.03042
G1 X147.543 Y45.391 E0.02946
G1 X145.994 Y44.867 E0.05126
G1 X145.714 Y44.748 E0.00957
G1 X145.300 Y44.512 E0.01493
G1 X145.118 Y44.333 E0.00800
G1 X145.077 Y44.228 E0.00353
G1 X145.097 Y44.073 E0.00489
G1 X145.240 Y43.803 E0.00958
G1 X145.374 Y43.644 E0.00653
G1 X145.550 Y43.483 E0.00749
G1 X145.765 Y43.329 E0.00830
G1 X146.017 Y43.190 E0.00902
G1 X146.302 Y43.071 E0.00968
G1 X146.619 Y42.979 E0.01035
G1 X146.967 Y42.918 E0.01106
G1 X147.344 Y42.893 E0.01185
G1 X147.750 Y42.906 E0.01275
G1 X148.185 Y42.964 E0.01376
G1 X148.648 Y43.069 E0.01488
G1 X149.138 Y43.226 E0.01612
G1 X149.653 Y43.437 E0.01746
G1 X150.192 Y43.706 E0.01889
G1 X150.753 Y44.035 E0.02041
G1 X151.336 Y44.426 E0.02199
G1 X151.938 Y44.880 E0.02363
G1 X152.557 Y45.398 E0.02533
G1 X153.194 Y45.981 E0.02706
G1 X153.846 Y46.629 E0.02883
G1 X154.513 Y47.343 E0.03063
G1 X155.194 Y48.123 E0.03245
G1 X155.887 Y48.968 E0.03429
G1 X156.594 Y49.879 E0.03614
G1 X157.313 Y50.856 E0.03801
G1 X158.043 Y51.897 E0.03988
G1 X158.785 Y53.003 E0.04176
G1 X159.539 Y54.174 E0.04365
G1 X160.513 Y55.747 E0.05804
G1 X161.557 Y55.839 E0.03287
G1 X162.098 Y55.984 E0.01754
G1 X162.605 Y56.220 E0.01754
G1 X163.063 Y56.541 E0.01754
G1 X163.459 Y56.937 E0.01754
G1 X163.780 Y57.395 E0.01754
G1 X164.016 Y57.902 E0.01754
G1 X164.161 Y58.443 E0.01754
G1 X164.213 Y59.034 E0.01863
G1 X164.213 Y120.966 E1.94181
G1 X164.161 Y121.557 E0.01863
G1 X164.016 Y122.098 E0.01754
G1 X163.780 Y122.605 E0.01754
G1 X163.459 Y123.063 E0.01754
G1 X163.063 Y123.459 E0.01754
G1 X162.605 Y123.780 E0.01754
G1 X162.098 Y124.016 E0.01754
G1 X161.557 Y124.161 E0.01754
G1 X160.513 Y124.253 E0.03287
G1 X159.539 Y125.826 E0.05804
G1 X158.785 Y126.997 E0.04365
G1 X158.043 Y128.103 E0.04176
G1 X157.313 Y129.144 E0.03988
G1 X156.594 Y130.121 E0.03801
G1 X155.887 Y131.032 E0.03614
G1 X155.194 Y131.877 E0.03429
G1 X154.513 Y132.657 E0.03245
G1 X153.846 Y133.371 E0.03063
G1 X153.194 Y134.019 E0.02883
G1 X152.557 Y134.602 E0.02706
G1 X151.938 Y135.120 E0.02533
G1 X151.336 Y135.574 E0.02363
G1 X150.753 Y135.965 E0.02199
G1 X150.192 Y136.294 E0.02041
G1 X149.653 Y136.563 E0.01889
G1 X149.138 Y136.774 E0.01746
G1 X148.648 Y136.931 E0.01612
G1 X148.185 Y137.036 E0.01488
G1 X147.750 Y137.094 E0.01376
G1 X147.344 Y137.107 E0.01275
G1 X146.967 Y137.082 E0.01185
G1 X146.619 Y137.021 E0.01106
G1 X146.302 Y136.929 E0.01035
G1 X146.017 Y136.810 E0.00968
G1 X145.765 Y136.671 E0.00902
G1 X145.550 Y136.517 E0.00830
G1 X145.374 Y136.356 E0.00749
G1 X145.240 Y136.197 E0.00653
G1 X145.148 Y136.050 E0.00542
G1 X145.077 Y135.835 E0.00711
G1 X145.089 Y135.724 E0.00350
G1 X145.182 Y135.588 E0.00515
G1 X145.468 Y135.379 E0.01109
G1 X146.004 Y135.130 E0.01854
G1 X147.543 Y134.609 E0.05094
G1 X148.425 Y134.286 E0.02946
G1 X149.301 Y133.869 E0.03042
G1 X149.743 Y133.601 E0.01621
G1 X150.157 Y133.299 E0.01605
G1 X150.546 Y132.955 E0.01628
G1 X150.904 Y132.568 E0.01655
G1 X151.226 Y132.136 E0.01687
G1 X151.506 Y131.662 E0.01727
G1 X151.741 Y131.147 E0.01775
G1 X151.932 Y130.594 E0.01835
G1 X152.077 Y130.004 E0.01906
G1 X152.177 Y129.377 E0.01989
G1 X152.234 Y128.715 E0.02085
G1 X152.247 Y128.016 E0.02191
G1 X152.218 Y127.281 E0.02307
G1 X152.149 Y126.508 E0.02432
G1 X152.038 Y125.698 E0.02564
G1 X151.786 Y124.272 E0.04539
M204 S1250
G1 X151.459 Y124.590 F9000.000
M204 S800
G1 F1200.000
G1 X19.018 Y124.590 E4.15260
G1 X18.377 Y124.534 E0.02018
G1 X17.773 Y124.372 E0.01961
G1 X17.206 Y124.108 E0.01961
G1 X16.693 Y123.749 E0.01961
G1 X16.251 Y123.307 E0.01961
G1 X15.892 Y122.794 E0.01961
G1 X15.628 Y122.227 E0.01961
G1 X15.466 Y121.623 E0.01961
G1 X15.410 Y120.982 E0.02018
G1 X15.410 Y59.018 E1.94284
G1 X15.466 Y58.377 E0.02018
G1 X15.628 Y57.773 E0.01961
G1 X15.892 Y57.206 E0.01961
G1 X16.251 Y56.693 E0.01961
G1 X16.693 Y56.251 E0.01961
G1 X17.206 Y55.892 E0.01961
G1 X17.773 Y55.628 E0.01961
G1 X18.377 Y55.466 E0.01961
G1 X19.018 Y55.410 E0.02018
G1 X151.459 Y55.410 E4.15260
G1 X151.666 Y54.244 E0.03713
G1 X151.774 Y53.450 E0.02514
G1 X151.842 Y52.695 E0.02375
G1 X151.870 Y51.980 E0.02243
G1 X151.857 Y51.305 E0.02118
G1 X151.803 Y50.669 E0.02002
G1 X151.707 Y50.071 E0.01897
G1 X151.570 Y49.513 E0.01804
G1 X151.391 Y48.993 E0.01723
G1 X151.171 Y48.513 E0.01656
G1 X150.911 Y48.073 E0.01602
G1 X150.614 Y47.673 E0.01561
G1 X150.282 Y47.314 E0.01532
G1 X149.921 Y46.995 E0.01513
G1 X149.534 Y46.713 E0.01500
G1 X149.122 Y46.463 E0.01511
G1 X148.279 Y46.062 E0.02927
G1 X147.418 Y45.746 E0.02876
G1 X145.860 Y45.220 E0.05155
G1 X145.554 Y45.090 E0.01043
G1 X145.288 Y44.954 E0.00935
G1 X145.073 Y44.815 E0.00803
G1 X144.911 Y44.676 E0.00669
G1 X144.801 Y44.540 E0.00549
G1 X144.733 Y44.409 E0.00463
G1 X144.701 Y44.275 E0.00433
G1 X144.700 Y44.127 E0.00462
G1 X144.735 Y43.961 E0.00533
G1 X144.812 Y43.776 E0.00626
G1 X144.934 Y43.581 E0.00723
G1 X145.101 Y43.382 E0.00814
G1 X145.312 Y43.189 E0.00896
G1 X145.564 Y43.009 E0.00970
G1 X145.853 Y42.849 E0.01037
G1 X146.177 Y42.715 E0.01100
G1 X146.534 Y42.612 E0.01165
G1 X146.921 Y42.543 E0.01233
G1 X147.338 Y42.515 E0.01308
G1 X147.782 Y42.530 E0.01393
G1 X148.252 Y42.592 E0.01488
G1 X148.748 Y42.705 E0.01594
G1 X149.267 Y42.871 E0.01710
G1 X149.809 Y43.094 E0.01836
G1 X150.372 Y43.374 E0.01972
G1 X150.954 Y43.716 E0.02116
G1 X151.555 Y44.118 E0.02268
G1 X152.172 Y44.584 E0.02426
G1 X152.806 Y45.114 E0.02589
G1 X153.454 Y45.708 E0.02757
G1 X154.117 Y46.367 E0.02930
G1 X154.793 Y47.091 E0.03105
G1 X155.481 Y47.879 E0.03283
G1 X156.182 Y48.733 E0.03463
G1 X156.895 Y49.652 E0.03646
G1 X157.619 Y50.635 E0.03829
G1 X158.354 Y51.683 E0.04014
G1 X159.101 Y52.796 E0.04200
G1 X159.858 Y53.972 E0.04387
G1 X160.734 Y55.388 E0.05221
G1 X161.623 Y55.466 E0.02798
G1 X162.227 Y55.628 E0.01961
G1 X162.794 Y55.892 E0.01961
G1 X163.307 Y56.251 E0.01961
G1 X163.749 Y56.693 E0.01961
G1 X164.108 Y57.206 E0.01961
G1 X164.372 Y57.773 E0.01961
G1 X164.534 Y58.377 E0.01961
G1 X164.590 Y59.018 E0.02018
G1 X164.590 Y120.982 E1.94284
G1 X164.534 Y121.623 E0.02018
G1 X164.372 Y122.227 E0.01961
G1 X164.108 Y122.794 E0.01961
G1 X163.749 Y123.307 E0.01961
G1 X163.307 Y123.749 E0.01961
G1 X162.794 Y124.108 E0.01961
G1 X162.227 Y124.372 E0.01961
G1 X161.623 Y124.534 E0.01961
G1 X160.734 Y124.612 E0.02798
G1 X159.858 Y126.028 E0.05221
G1 X159.101 Y127.204 E0.04387
G1 X158.354 Y128.317 E0.04200
G1 X157.619 Y129.365 E0.04014
G1 X156.895 Y130.348 E0.03829
G1 X156.182 Y131.267 E0.03646
G1 X155.481 Y132.121 E0.03463
G1 X154.793 Y132.909 E0.03283
G1 X154.117 Y133.633 E0.03105
G1 X153.454 Y134.292 E0.02930
G1 X152.806 Y134.886 E0.02757
G1 X152.172 Y135.416 E0.02589
G1 X151.555 Y135.882 E0.02426
G1 X150.954 Y136.284 E0.02268
G1 X150.372 Y136.626 E0.02116
G1 X149.809 Y136.906 E0.01972
G1 X149.267 Y137.129 E0.01836
G1 X148.748 Y137.295 E0.01710
G1 X148.252 Y137.408 E0.01594
G1 X147.782 Y137.470 E0.01488
G1 X147.338 Y137.485 E0.01393
G1 X146.921 Y137.457 E0.01308
G1 X146.534 Y137.388 E0.01233
G1 X146.177 Y137.285 E0.01165
G1 X145.853 Y137.151 E0.01100
G1 X145.564 Y136.991 E0.01037
G1 X145.312 Y136.811 E0.00970
G1 X145.101 Y136.618 E0.00896
G1 X144.934 Y136.419 E0.00814
G1 X144.812 Y136.224 E0.00723
G1 X144.735 Y136.039 E0.00626
G1 X144.700 Y135.873 E0.00534
G1 X144.701 Y135.725 E0.00462
G1 X144.733 Y135.591 E0.00433
G1 X144.801 Y135.460 E0.00463
G1 X144.911 Y135.324 E0.00549
G1 X145.073 Y135.185 E0.00669
G1 X145.285 Y135.048 E0.00791
G1 X145.864 Y134.779 E0.02000
G1 X147.418 Y134.254 E0.05144
G1 X148.279 Y133.938 E0.02876
G1 X149.122 Y133.537 E0.02927
G1 X149.534 Y133.287 E0.01511
G1 X149.921 Y133.005 E0.01500
G1 X150.282 Y132.686 E0.01513
G1 X150.614 Y132.327 E0.01532
G1 X150.911 Y131.927 E0.01561
G1 X151.171 Y131.487 E0.01602
G1 X151.391 Y131.007 E0.01656
G1 X151.570 Y130.487 E0.01723
G1 X151.707 Y129.929 E0.01804
G1 X151.803 Y129.331 E0.01897
G1 X151.857 Y128.695 E0.02002
G1 X151.870 Y128.020 E0.02118
G1 X151.842 Y127.305 E0.02243
G1 X151.774 Y126.550 E0.02375
G1 X151.666 Y125.756 E0.02514
G1 X151.470 Y124.649 E0.03524
M204 S1250
G1 X151.438 Y124.191 F9000.000
G1 E-2.24000 F2400.00000
G1 F7200.000
G1 X148.590 Y124.648 E-0.91200
G1 E-0.04800 F2400.00000
G1 Z0.400 F9000.000
G1 X156.863 Y129.565
G1 Z0.200
G1 E3.20000 F1500.00000
M204 S800
G1 F1200.000
G1 X152.181 Y124.883 E0.20775
G1 X152.296 Y125.532 E0.02067
G1 X156.515 Y129.751 E0.18722
G1 X156.286 Y130.056 E0.01196
G1 X152.386 Y126.155 E0.17308
G1 X152.455 Y126.758 E0.01904
G1 X156.053 Y130.356 E0.15967
G1 X155.820 Y130.657 E0.01194
G1 X152.504 Y127.340 E0.14717
G1 X152.525 Y127.896 E0.01744
G1 X155.585 Y130.955 E0.13576
G1 X155.344 Y131.248 E0.01190
G1 X152.522 Y128.426 E0.12523
G1 X152.499 Y128.936 E0.01603
G1 X155.103 Y131.541 E0.11559
G1 X154.859 Y131.830 E0.01188
G1 X152.456 Y129.427 E0.10665
G1 X152.382 Y129.887 E0.01462
G1 X154.610 Y132.115 E0.09887
G1 X154.361 Y132.400 E0.01187
G1 X152.289 Y130.327 E0.09198
G1 X152.177 Y130.750 E0.01371
G1 X154.106 Y132.678 E0.08557
G1 X153.848 Y132.954 E0.01185
G1 X152.041 Y131.147 E0.08020
G1 X151.881 Y131.521 E0.01276
G1 X153.588 Y133.228 E0.07575
G1 X153.321 Y133.494 E0.01184
G1 X151.706 Y131.879 E0.07167
G1 X151.508 Y132.215 E0.01223
G1 X153.053 Y133.760 E0.06859
G1 X152.999 Y133.814 E0.00241
G1 X152.777 Y134.018 E0.00944
G1 X151.287 Y132.528 E0.06612
G1 X151.051 Y132.826 E0.01192
G1 X152.498 Y134.273 E0.06422
G1 X152.213 Y134.521 E0.01187
G1 X150.795 Y133.103 E0.06294
G1 X150.517 Y133.359 E0.01185
G1 X151.922 Y134.764 E0.06237
G1 X151.626 Y135.001 E0.01192
G1 X150.225 Y133.600 E0.06218
G1 X149.916 Y133.825 E0.01199
G1 X151.322 Y135.231 E0.06238
G1 X151.010 Y135.452 E0.01201
G1 X149.585 Y134.028 E0.06322
G1 X149.237 Y134.213 E0.01238
G1 X150.690 Y135.667 E0.06451
G1 X150.358 Y135.869 E0.01219
G1 X148.875 Y134.385 E0.06583
G1 X148.511 Y134.555 E0.01259
G1 X150.020 Y136.064 E0.06694
G1 X149.664 Y136.241 E0.01248
G1 X148.121 Y134.699 E0.06847
G1 X147.731 Y134.842 E0.01305
G1 X149.293 Y136.405 E0.06936
G1 X148.906 Y136.551 E0.01299
G1 X147.334 Y134.979 E0.06979
G1 X146.935 Y135.114 E0.01321
G1 X148.497 Y136.675 E0.06931
G1 X148.056 Y136.768 E0.01414
G1 X146.536 Y135.248 E0.06743
G1 X146.137 Y135.383 E0.01321
G1 X147.571 Y136.817 E0.06361
G1 X147.349 Y136.824 E0.00697
G1 X147.022 Y136.802 E0.01027
G1 X145.771 Y135.550 E0.05555
G1 X145.612 Y135.624 E0.00547
G1 X145.438 Y135.752 E0.00678
G1 X146.577 Y136.891 E0.05055
M204 S1250
G1 E-2.24000 F2400.00000
G1 F7200.000
G1 X145.438 Y135.752 E-0.51010
G1 X145.612 Y135.624 E-0.06842
G1 X145.771 Y135.550 E-0.05523
G1 X146.392 Y136.172 E-0.27825
G1 E-0.04800 F2400.00000
M73 P1 R107
G1 Z0.400 F9000.000
G1 X131.763 Y55.900
G1 Z0.200
G1 E3.20000 F1500.00000
M204 S800
G1 F1200.000
G1 X134.093 Y58.230 E0.10339
G1 X133.559 Y58.230 E0.01675
G1 X131.399 Y56.070 E0.09586
G1 X130.866 Y56.070 E0.01675
G1 X133.026 Y58.230 E0.09586
G1 X132.492 Y58.230 E0.01675
G1 X130.332 Y56.070 E0.09586
G1 X129.798 Y56.070 E0.01675
G1 X131.958 Y58.230 E0.09586
G1 X131.425 Y58.230 E0.01675
G1 X129.264 Y56.070 E0.09586
G1 X128.731 Y56.070 E0.01675
G1 X130.891 Y58.230 E0.09586
G1 X130.357 Y58.230 E0.01675
G1 X128.197 Y56.070 E0.09586
G1 X127.663 Y56.070 E0.01675
G1 X129.824 Y58.230 E0.09586
G1 X129.290 Y58.230 E0.01675
G1 X127.130 Y56.070 E0.09586
G1 X126.596 Y56.070 E0.01675
G1 X128.756 Y58.230 E0.09586
G1 X128.223 Y58.230 E0.01675
G1 X126.062 Y56.070 E0.09586
G1 X125.529 Y56.070 E0.01675
G1 X127.689 Y58.230 E0.09586
G1 X127.155 Y58.230 E0.01675
G1 X124.995 Y56.070 E0.09586
G1 X124.461 Y56.070 E0.01675
